X:1
T:My Anchor Holds
T:My Anchor Holds
T:Daniel Brink Towner
T:William Clark Martin, 1902
T:Public Domain Courtesy of the Cyber Hymnal™
T:Public Domain Courtesy of the Cyber Hymnal™
C:Daniel Brink Towner
Z:Public Domain
Z:Courtesy of the Cyber Hymnal™
%%score ( 1 2 ) ( 3 4 )
L:1/8
Q:1/4=110
M:4/4
K:C
V:1 treble 
V:2 treble 
V:3 bass 
V:4 bass 
V:1
 G>G | c3 G E2 F2 | G6 [EG]>[EG] | [FA]3 [FA] [FA]2 [FA]2 | [EG]6 [EG]>[EG] | %5
w: 1.~Though the|ang- ry surg- es|roll On my|temp- est driv- en|soul, I am|
w: 2.~Might- y|tides a- bout me|sweep, Per- ils|lurk with- in the|deep, Ang- ry|
w: 3.~I can|feel the anch- or|fast As I|meet each sud- den|blast, And the|
w: 4.~Trou- bles|al- most ’whelm the|soul; Griefs like|bil- lows o’er me|roll; Tempt- ers|
 [FB]3 [FB] [FA]2 [FG]2 | [Ec]6 [Gc]>[Gc] | [^Fc]3 [Fc] [FA]2 [Fd]2 | [Gd]6 [FG]>[FG] | %9
w: peace- ful, for I|know, Wild- ly|though the winds may|blow, I’ve an|
w: clouds o’er- shade the|sky, And the|temp- est ris- es|high; Still I|
w: ca- ble, though un-|seen, Bears the|hea- vy strain be-|tween; Through the|
w: seek to lure a-|stray; Storms ob-|scure the light of|day: But in|
 [Ec]3 [Ec] [Gd]2 [Gd]2 | [Ge]6 [Fd]>[Fd] | [Ec]3 [Fd] [Ec]2 [DB]2 | [Ec]6 ||"^Refrain" [FG]>[FG] | %14
w: an- chor safe and|sure, That can|ev- er- more en-|dure.||
w: stand the temp- est’s|shock, For my|anch- or grips the|rock.||
w: storm I safe- ly|ride, Till the|turn- ing of the|tide.|And it|
w: Christ I can be|bold, I’ve an|an- chor that shall|hold.||
 [Ec]3 [Fc] [Gc]2 [Ac]2 | c6 G>G | [Gd]3 [Gd] [Gd]2 [Gd]2 | [Gd]6 [FG]>[FG] | %18
w: ||||
w: ||||
w: holds, my an- chor|holds: Blow your|wild- est, then, O|gale, On my|
w: ||||
 [Ec]3 [Fc] [Gc]2 [G_B]2 | [FA]6 [FA]>[FA] | [^Fd]3 [Fe] [Fd]2 [Fc]2 | [GB]6 [FG]>[FG] | c4 c4 | %23
w: |||||
w: |||||
w: bark so small and|frail; By His|grace I shall not|fail, For my|an- chor|
w: |||||
 c6 [Fd]2 | [Ge]4 [Fd]4 | [Ec]6 |] %26
w: |||
w: |||
w: holds, my|an- chor|holds.|
w: |||
V:2
 G>G | c3 G E2 F2 | G6 x2 | x8 | x8 | x8 | x8 | x8 | x8 | x8 | x8 | x8 | x6 || x2 | x8 | %15
 (G2 F2 E2) G>G | x8 | x8 | x8 | x8 | x8 | x8 | (E2 F2) (G2 F2) | (E2 G2 E2) x2 | x8 | x6 |] %26
V:3
 G,>G, | C3 G, E,2 F,2 | G,6 [C,C]>[C,C] | [F,C]3 [F,C] [F,C]2 [F,C]2 | [C,C]6 [C,C]>[C,C] | %5
 G,3 G, [G,B,]2 [G,B,]2 | [C,C]6 [E,C]>[E,C] | [D,A,]3 [D,A,] [D,C]2 [D,C]2 | %8
 [G,B,]6 [G,B,]>[G,B,] | [C,C]3 [C,C] [G,B,]2 [G,B,]2 | C6 [F,A,]>[F,A,] | G,3 G, G,2 [G,,G,]2 | %12
 [C,G,]6 || [G,B,]>[G,B,] | [C,C]3 [D,C] [E,C]2 [F,C]2 | G,6 [E,C]>[E,C] | %16
 [G,B,]2 [A,C]2 [B,D]2 [A,C]2 | ([G,B,]2 [F,B,]2 [D,B,]2) [B,,G,]>[B,,G,] | %18
 [C,G,]3 [D,G,] [E,C]2 [E,C]2 | [F,C]6 [F,C]>[E,C] | [D,C]3 [D,B,] [D,A,]2 [D,A,]2 | %21
 [G,,G,]6 [G,B,]>[G,B,] | C4 C4 | E6 [_A,D]2 | [G,C]4 [G,B,]4 | [C,C]6 |] %26
V:4
 G,>G, | C3 G, E,2 F,2 | G,6 x2 | x8 | x8 | G,3 G, x4 | x8 | x8 | x8 | x8 | C6 x2 | x8 | x6 || x2 | %14
 x8 | (E,2 D,2 C,2) x2 | x8 | x8 | x8 | x8 | x8 | x8 | (C,2 D,2) (E,2 D,2) | (C,2 E,2 _A,2) x2 | %24
 x8 | x6 |] %26

